!!!OTL: Ritter und Magd 'Ach Tochter lauber, ach Tochter min,
!!!ARE: Europa, Mitteleuropa, Schweiz
!!!YOR: 3, S. 54
!!    ????
!!!SCT: Q0055Q
!!!YEM: Copyright 1995, estate of Helmut Schaffrath.
**kern
*ICvox
*Ivox
*M6/8
*k[b-]
*F:
{8c
4f
8a
=1
8.cc
16cc
8cc
8dd
8ff
8dd
=2
4cc}
{8cc
8ff
8ee
8dd
=3
4cc
8b-
4a
8b-
=4
4cc}
{8cc
4dd
8dd
=5
8.dd
16ee
8ff
8cc
8cc
8a
=6
4cc}
{8a
8g
16g
16g
8dd
=7
8cc
8b-
8a
8.g
16a
8g
=8
4f}
{8cc
4dd
8dd
=9
8.dd
16ee
8ff
8cc
8cc
8a
=10
4cc}
{8a
8g
16g
16g
8dd
=11
8cc
8b-
8a
8.g
16a
8g
=12
4f}
==
!!!AGN: Ballade, Betrug, Schwangerschaft, Tod, Selbstmord, Herr und Magd
!!!ONB: ESAC (Essen Associative Code) Database: BALLADE
!!!AMT: compound duple
!!!AIN: vox
!!!EED: Helmut Schaffrath
!!!EEV: 1.0
*-
